src/amo/components/Icon/img/permissions/messages.svg

<svg xmlns="http://www.w3.org/2000/svg" xmlns:xlink="http://www.w3.org/1999/xlink" width="24" height="24" viewBox="0 0 24 24">
  <defs>
    <path id="messages-a" d="M20.3655,0.75 C22.371751,0.752479407 23.9975206,2.37824898 24,4.3845 L24,13.6155 C23.9975206,15.621751 22.371751,17.2475206 20.3655,17.25 L19.5,17.25 L19.5,21.75 C19.4998823,22.3839755 19.1012032,22.9494201 18.504101,23.1624786 C17.9069988,23.375537 17.2404242,23.1901971 16.839,22.6995 L12.39,17.25 L3.6345,17.25 C1.62824898,17.2475206 0.00247940678,15.621751 0,13.6155 L0,4.3845 C0.00247940678,2.37824898 1.62824898,0.752479407 3.6345,0.75 L20.3655,0.75 Z M21,13.6155 L21,4.3845 C21,4.03407533 20.7159247,3.75 20.3655,3.75 L3.6345,3.75 C3.28407533,3.75 3,4.03407533 3,4.3845 L3,13.6155 C3,13.7837799 3.06684892,13.9451674 3.18584075,14.0641593 C3.30483258,14.1831511 3.46622014,14.25 3.6345,14.25 L13.101,14.25 C13.5515066,14.249618 13.9783294,14.4517393 14.2635,14.8005 L16.5,17.541 L16.5,15.75 C16.5,14.9215729 17.1715729,14.25 18,14.25 L20.3655,14.25 C20.5337799,14.25 20.6951674,14.1831511 20.8141593,14.0641593 C20.9331511,13.9451674 21,13.7837799 21,13.6155 Z M17.25,6.75 C17.6642136,6.75 18,7.08578644 18,7.5 C18,7.91421356 17.6642136,8.25 17.25,8.25 L6.75,8.25 C6.33578644,8.25 6,7.91421356 6,7.5 C6,7.08578644 6.33578644,6.75 6.75,6.75 L17.25,6.75 Z M17.25,9.75 C17.6642136,9.75 18,10.0857864 18,10.5 C18,10.9142136 17.6642136,11.25 17.25,11.25 L6.75,11.25 C6.33578644,11.25 6,10.9142136 6,10.5 C6,10.0857864 6.33578644,9.75 6.75,9.75 L17.25,9.75 Z"/>
  </defs>
  <g fill="none" fill-rule="evenodd">
    <rect width="24" height="24"/>
    <mask id="messages-b" fill="#fff">
      <use xlink:href="#messages-a"/>
    </mask>
    <g fill="#0F1126" mask="url(#messages-b)">
      <rect width="24" height="24"/>
    </g>
  </g>
</svg>

<svg xmlns="http://www.w3.org/2000/svg" xmlns:xlink="http://www.w3.org/1999/xlink" width="24" height="24"><defs><path id="a" d="M20.366.75A3.639 3.639 0 0 1 24 4.385v9.23a3.639 3.639 0 0 1-3.634 3.635H19.5v4.5a1.5 1.5 0 0 1-2.661.95l-4.449-5.45H3.634A3.639 3.639 0 0 1 0 13.616V4.384A3.639 3.639 0 0 1 3.635.75h16.73ZM21 13.616V4.384a.634.634 0 0 0-.634-.634H3.634A.635.635 0 0 0 3 4.385v9.23a.635.635 0 0 0 .635.635H13.1a1.5 1.5 0 0 1 1.162.55l2.237 2.741V15.75a1.5 1.5 0 0 1 1.5-1.5h2.366a.635.635 0 0 0 .634-.634ZM17.25 6.75a.75.75 0 1 1 0 1.5H6.75a.75.75 0 0 1 0-1.5h10.5Zm0 3a.75.75 0 1 1 0 1.5H6.75a.75.75 0 1 1 0-1.5h10.5Z"/></defs><g fill="none" fill-rule="evenodd"><path d="M0 0h24v24H0z"/><mask id="b" fill="#fff"><use xlink:href="#a"/></mask><g fill="#0F1126" mask="url(#b)"><path d="M0 0h24v24H0z"/></g></g></svg>
